tools/download-figma-icons/icons/outlined-medium/work-life-balance.svg

<svg width="24" height="24" viewBox="0 0 24 24" fill="none" xmlns="http://www.w3.org/2000/svg">
<path fill-rule="evenodd" clip-rule="evenodd" d="M7.5 5.8125V3.75H1.5V5.8125H3.9375C3.9375 5.502 4.1895 5.25 4.5 5.25C4.8105 5.25 5.0625 5.502 5.0625 5.8125H7.5ZM5.25 2.25H3.75V1.5H5.25V2.25ZM1.5 6.9375V8.25H7.5V6.9375H5.0625C5.0625 7.248 4.8105 7.5 4.5 7.5C4.1895 7.5 3.9375 7.248 3.9375 6.9375H1.5ZM8.25 9.75H0.75C0.33525 9.75 0 9.41475 0 9V3C0 2.58525 0.33525 2.25 0.75 2.25H2.25V0.75C2.25 0.33525 2.58525 0 3 0H6C6.41475 0 6.75 0.33525 6.75 0.75V2.25H8.25C8.66475 2.25 9 2.58525 9 3V9C9 9.41475 8.66475 9.75 8.25 9.75ZM16.5011 1.50024C16.1073 1.50024 15.7353 1.66299 15.4541 1.95924C14.8458 2.59374 14.8458 3.62199 15.4518 4.25424L18.7503 7.88424L22.0338 4.26849C22.6541 3.62199 22.6541 2.59374 22.0481 1.96149L22.0458 1.95924C21.4841 1.36749 20.5166 1.36749 19.9533 1.95924L19.6481 2.27949C19.1718 2.77749 18.3281 2.77749 17.8518 2.27949L17.5473 1.95999C17.2653 1.66299 16.8933 1.50024 16.5011 1.50024ZM18.7503 9.75024C18.5381 9.75024 18.3371 9.66099 18.1946 9.50424L14.3553 5.27799C13.2146 4.08774 13.2146 2.12799 14.3696 0.922739C14.9351 0.328739 15.6918 0.000238965 16.5011 0.000238965C17.3088 0.000238965 18.0656 0.328739 18.6333 0.924989L18.7503 1.04724L18.8673 0.924239C19.4343 0.328739 20.1911 0.000238965 20.9996 0.000238965C21.8074 0.000238965 22.5633 0.327989 23.1311 0.923489C24.2853 2.12799 24.2853 4.08774 23.1303 5.29224L19.3053 9.50424C19.1628 9.66099 18.9618 9.75024 18.7503 9.75024ZM12 12C12.8272 12 13.5 12.6728 13.5 13.5C13.5 14.3272 12.8272 15 12 15C11.1728 15 10.5 14.3272 10.5 13.5C10.5 12.6728 11.1728 12 12 12ZM12 16.5C13.6545 16.5 15 15.1545 15 13.5C15 11.8455 13.6545 10.5 12 10.5C10.3455 10.5 9 11.8455 9 13.5C9 15.1545 10.3455 16.5 12 16.5ZM23.25 12.75H20.25C19.8983 12.75 19.5945 12.9937 19.5173 13.3372L18.2557 19.0185L15.7913 17.376C15.6683 17.2943 15.5227 17.25 15.375 17.25H8.625C8.47725 17.25 8.33175 17.2943 8.20875 17.376L5.74425 19.0185L4.48275 13.3372C4.4055 12.9937 4.10175 12.75 3.75 12.75H0.75C0.33525 12.75 0 13.0852 0 13.5C0 13.9148 0.33525 14.25 0.75 14.25H3.1485L4.51725 20.4128C4.572 20.6543 4.74075 20.8538 4.97025 20.946C5.199 21.039 5.4585 21.0112 5.66625 20.874L8.25 19.1512V23.25C8.25 23.6647 8.58525 24 9 24C9.41475 24 9.75 23.6647 9.75 23.25V18.75H14.25V23.25C14.25 23.6647 14.5852 24 15 24C15.4148 24 15.75 23.6647 15.75 23.25V19.1512L18.3337 20.874C18.459 20.9572 18.6045 21 18.75 21C18.8445 21 18.9397 20.9827 19.0297 20.946C19.2592 20.8538 19.428 20.6543 19.4827 20.4128L20.8515 14.25H23.25C23.6647 14.25 24 13.9148 24 13.5C24 13.0852 23.6647 12.75 23.25 12.75ZM18.75 5.43747C19.8988 5.43747 20.6502 4.52439 20.6883 4.47807L20.6888 4.47747C20.8823 4.23597 20.8433 3.88572 20.604 3.69072C20.3633 3.49347 20.0115 3.53097 19.8135 3.76947L19.8133 3.76973C19.8012 3.78403 19.353 4.31247 18.75 4.31247C18.1493 4.31247 17.7015 3.78822 17.6865 3.77022C17.49 3.52947 17.139 3.49122 16.8975 3.68622C16.6553 3.88122 16.617 4.23447 16.8113 4.47747L16.8118 4.47807C16.8499 4.52439 17.6012 5.43747 18.75 5.43747Z" fill="black"/>
</svg>

<svg width="24" height="24" viewBox="0 0 24 24" fill="none" xmlns="http://www.w3.org/2000/svg"><path fill-rule="evenodd" clip-rule="evenodd" d="M7.5 5.813V3.75h-6v2.063h2.438a.563.563 0 0 1 1.124 0H7.5ZM5.25 2.25h-1.5V1.5h1.5v.75ZM1.5 6.938V8.25h6V6.937H5.062a.563.563 0 0 1-1.125 0H1.5ZM8.25 9.75H.75A.75.75 0 0 1 0 9V3a.75.75 0 0 1 .75-.75h1.5V.75A.75.75 0 0 1 3 0h3a.75.75 0 0 1 .75.75v1.5h1.5A.75.75 0 0 1 9 3v6a.75.75 0 0 1-.75.75Zm8.251-8.25c-.394 0-.766.163-1.047.46a1.674 1.674 0 0 0-.002 2.294l3.298 3.63 3.284-3.616c.62-.646.62-1.674.014-2.307l-.002-.002a1.455 1.455 0 0 0-2.093 0l-.305.32a1.267 1.267 0 0 1-1.796 0l-.305-.319a1.436 1.436 0 0 0-1.046-.46Zm2.25 8.25a.75.75 0 0 1-.556-.246l-3.84-4.226c-1.14-1.19-1.14-3.15.015-4.355a2.921 2.921 0 0 1 4.263.002l.117.122.117-.123a2.923 2.923 0 0 1 4.264 0c1.154 1.204 1.154 3.164 0 4.368l-3.826 4.212a.75.75 0 0 1-.555.246ZM12 12c.827 0 1.5.673 1.5 1.5S12.827 15 12 15s-1.5-.673-1.5-1.5.673-1.5 1.5-1.5Zm0 4.5c1.655 0 3-1.345 3-3s-1.345-3-3-3-3 1.345-3 3 1.345 3 3 3Zm11.25-3.75h-3a.75.75 0 0 0-.733.587l-1.261 5.681-2.465-1.642a.755.755 0 0 0-.416-.126h-6.75a.755.755 0 0 0-.416.126l-2.465 1.642-1.261-5.68a.75.75 0 0 0-.733-.588h-3a.75.75 0 1 0 0 1.5h2.398l1.37 6.163a.753.753 0 0 0 1.148.461l2.584-1.723v4.099a.75.75 0 1 0 1.5 0v-4.5h4.5v4.5a.75.75 0 1 0 1.5 0v-4.099l2.584 1.723a.754.754 0 0 0 .696.072.753.753 0 0 0 .453-.533l1.369-6.163h2.398a.75.75 0 1 0 0-1.5Zm-4.5-7.313c1.149 0 1.9-.913 1.938-.959a.563.563 0 0 0-.875-.708c-.012.014-.46.542-1.063.542-.6 0-1.049-.524-1.064-.542a.563.563 0 0 0-.875.707v.001c.039.046.79.96 1.939.96Z" fill="currentColor"/></svg>
